!!!COM: Jules Massenet
!!!CNT: Francais
!!!TXO: Francais
!!!OTL: "A/ la tre/passe/e"
!!!LYR: Silvestre
!!!OPR: 
!!!OPS: Op. 
!!!ONM: No.
!!!ENC: Emily Thomas
!!!YOR: CD Sheet Music French Art Songs, The Ultimate Collection
!!!YOR: CD Sheet Music, LLC 2003
!!!ODT: 1868/
!!NB: Vocal melody and text encoded.
**kern	**silbe
=1	=1
*clefG2	*
*k[b-e-a-]	*
*M3/4	*
*MM[Lent et expressif.]	*
2.r	.
=2	=2
2.r	.
=3	=3
2.r	.
=4	=4
2.r	.
=5	=5
4r	.
4r	.
{8..g	{Le\-
32b-	-ve-
=6	=6
4cc	-toi,
[2b-	|
=7	=7
4b-]}	|}
4r	.
{8..ee-	{le\-
32b-	-ve-
=8	=8
4ee-	-toi,
8ee-	che\re
8cc	en-
8b-	-se-
8g	-ve-
=9	=9
2.b-	-li-
=10	=10
2g}	-e!}
8r	.
{8g	{De/-
=11	=11
4g	-chi-
4f	-re
8g	ton
8g	lin-
=12	=12
8an	-ceul
8g	de
4dd	fleurs:
4cc}	|}
=13	=13
{4cc	{Tu
8dd	n'as
8cc	pas
8f	ou-
8a-	-bli-
=14	=14
2g	-e/
8ee-	mes
8cc	|
=15	=15
[2.b-	pleurs?
=16	=16
4b-_	|
8b-]}	|}
8r	.
4r	.
=17	=17
4r	.
4r	.
{8ee-	{La
8b-	plus
=18	=18
8ee-	dou-
8cc-	-ce
4b-	lar-
8..d-	-me
32g-	s'ou-
=19	=19
2.f	-bli-
=20	=20
2e-}	-e!}
4r	.
=21	=21
2.r	.
=22	=22
4r	.
8r	.
{8b-	{Je
8b-	te
8b-	re-
=23	=23
4.ddn	-trouve
8ddn	un
8ddn	peu
8ee-	pa^-
=24	=24
4cc-	-li-
4b-}	-e,}
6r	.
{12cc-	{pa^-
=25	=25
4cc-	-li-
4b-}	-e:}
{8b-	{Qui
8b-	t'a
=26	=26
8ccn	pris
8cc	tes
4ee-	che\-
8an	-res
8an	cou-
=27	=27
[2.b-	leurs?
=28	=28
4b-_	|
8b-]}	|}
8r	.
4r	.
=29	=29
4r	.
4r	.
{8b-	{J'ai
8b-	long-
=30	=30
8b-	-temps
8b-	dor-
4b-	-mi-
8b-	sous
8b-	des
=31	=31
4b-}	fleurs,}
4r	.
{8ee-	{Et
8b-	le
=32	=32
8ee-	plus
8cc-	doux
4b-	char-
8..d-	-me
32g-	s'ou-
=33	=33
2.f	-blis-
=34	=34
[8e-	-e!
16e-]}	|}
16r	.
*MM[Piu\ mosso ed appassionato.]	*
{4cc-	{Ah!
12r	.
12cc-	Je
12cc-	ne
=35	=35
[4ee-	sais
6ee-]	|
12ee-	par
12ee-	quell-
12ee-	-le
12ee-	fo-
=36	=36
4dd-	-li-
8b-	-e
8b-	je
8b-	t'aime
8gn	en-
=37	=37
4.een	-cor
8een	sous
8een	tes
8een	pa^-
=38	=38
2ccn}	-leurs,}
4r	.
=39	=39
{[2ff	{Viens,
6ff]	|
12a	les
=40	=40
12a	ro-
12g	-ses
12a	boi-
4f	-ront
4ddn	tes
=41	=41
[2cc	pleurs!
12cc]}	|}
12r	.
{12g	{Les
=42	=42
12g	ro-
12f	-ses
12g	boi-
4e-	-ront
4cc	tes
=43	=43
[8b-	pleurs!
16b-]	|
16r	.
[2b-	Viens!
=44	=44
4b-_	|
8b-]}	|}
8r	.
4r	.
=45	=45
4r	.
4r	.
{8ee-	{Le
8b-	che-
=46	=46
8ee-	-min
8cc-	des
4b-	ro-
8..d-	-ses
32g-	s'ou-
=47	=47
2.f	-bli-
=48	=48
4e-}	-e.}
4r	.
6r	.
{12b-	{Je
=49	=49
4b-	meurs
12b-	de
12b-	ta
12b-	me/-
8b-	-lan
8b-	-co-
=50	=50
4dd-	-li-
[4b-	-e!
8b-]}	|}
8r	.
=51	=51
{4cc-	{Vien-
12a-	-nent
12a-	de
12a-	nou-
12a-	-vel-
12cc-	-les
12ff-	dou-
=52	=52
2.ff-	-leurs!
=53	=53
4ee-}	|}
8r	.
{8gn	{C'est
8..g	le
32b-	prin-
=54	=54
4cc	-temps!
8b-	|
8b-	cueil-
8cc	-lons
8ee-	des
=55	=55
2ffn}	fleurs!}
{8..ee-	{Le\-
32b-	-ve-
=56	=56
4ee-	-toi,
8ee-	che\re
8cc	en
8.b-	se-
16g	-ve-
=57	=57
2f	-li-
4a-}	-e!}
=58	=58
4r	.
{4..cc-	{Le\-
16b-	-ve-
=59	=59
[2.b-	-toi!
=60	=60
4b-]}	|}
4r	.
{8..ccn	{Le\-
32ee-	-ve-
=61	=61
4ff	-toi!
[2ee-	|
=62	=62
2ee-]}	|}
4r	.
==	==
*-	*-
